flaticon/coffee-shop/coffee-cup-9.svg

<svg xmlns="http://www.w3.org/2000/svg" width="32" height="32" viewBox="0 0 24 24">
    <path d="M 24 12.609375 C 24 11.984375 23.644531 11.441406 23.125 11.167969 C 22.59375 5.355469 17.6875 0.8125 11.796875 0.8125 C 9.613281 0.8125 7.496094 1.441406 5.679688 2.664062 C 5.152344 1.296875 4.179688 0.40625 3.050781 0.40625 C 1.34375 0.40625 0 2.441406 0 5.085938 C 0 6.484375 0.386719 7.730469 1.011719 8.582031 C 0.621094 9.734375 0.40625 10.949219 0.40625 12.203125 C 0.40625 14.109375 0.910156 16.019531 1.808594 17.699219 C 1.765625 18.011719 1.71875 18.320312 1.667969 18.628906 L 1.300781 21.113281 C 1.21875 21.398438 1.21875 21.722656 1.300781 22.007812 L 1.34375 22.089844 C 1.546875 22.984375 2.359375 23.59375 3.253906 23.59375 C 4.148438 23.59375 4.960938 22.984375 5.207031 22.089844 L 5.246094 22.007812 C 5.269531 21.855469 5.277344 21.707031 5.277344 21.554688 C 7.195312 22.886719 9.464844 23.59375 11.796875 23.59375 C 17.320312 23.59375 22.09375 19.539062 23.019531 14.101562 C 23.597656 13.847656 24 13.273438 24 12.609375 Z M 3.050781 1.21875 C 4.269531 1.21875 5.289062 2.96875 5.289062 5.085938 C 5.289062 6.5625 4.769531 7.898438 4.03125 8.542969 L 4.027344 8.542969 L 3.863281 8.625 C 3.335938 8.988281 2.765625 9.03125 2.238281 8.664062 L 2.125 8.585938 C 2.109375 8.574219 2.09375 8.5625 2.078125 8.546875 C 1.335938 7.90625 0.8125 6.570312 0.8125 5.085938 C 0.8125 2.96875 1.832031 1.21875 3.050781 1.21875 Z M 1.625 9.234375 C 1.628906 9.234375 1.628906 9.234375 1.628906 9.234375 C 2.035156 11.511719 2.117188 13.832031 1.953125 16.109375 C 1.464844 14.886719 1.21875 13.546875 1.21875 12.203125 C 1.21875 11.1875 1.34375 10.210938 1.625 9.234375 Z M 4.433594 21.804688 L 4.394531 21.882812 C 4.230469 22.414062 3.78125 22.78125 3.253906 22.78125 C 2.726562 22.78125 2.277344 22.414062 2.15625 21.882812 L 2.117188 21.804688 C 2.074219 21.640625 2.074219 21.476562 2.117188 21.273438 L 2.480469 18.792969 C 2.542969 18.421875 2.59375 18.046875 2.636719 17.671875 C 2.640625 17.667969 2.640625 17.660156 2.644531 17.652344 C 2.652344 17.5625 2.664062 17.472656 2.671875 17.382812 C 2.957031 14.8125 2.90625 12.242188 2.566406 9.707031 C 2.722656 9.742188 2.886719 9.761719 3.050781 9.761719 C 3.378906 9.761719 3.691406 9.6875 3.984375 9.546875 C 3.609375 12.132812 3.550781 14.71875 3.828125 17.28125 C 3.882812 17.785156 3.949219 18.289062 4.027344 18.792969 L 4.3125 20.664062 C 4.3125 20.714844 4.328125 20.765625 4.359375 20.816406 L 4.433594 21.273438 C 4.472656 21.4375 4.472656 21.640625 4.433594 21.804688 Z M 11.796875 22.78125 C 9.375 22.78125 7.03125 21.9375 5.125 20.414062 L 4.839844 18.671875 C 4.59375 17.164062 4.46875 15.648438 4.464844 14.132812 C 4.457031 12.421875 4.601562 10.714844 4.882812 9.03125 L 4.917969 8.800781 C 5.640625 7.949219 6.101562 6.605469 6.101562 5.085938 C 6.101562 5.078125 6.101562 5.070312 6.101562 5.0625 C 6.101562 5.054688 6.101562 5.050781 6.101562 5.042969 C 6.101562 5.035156 6.101562 5.023438 6.101562 5.015625 C 6.101562 4.960938 6.101562 4.90625 6.097656 4.851562 C 6.097656 4.847656 6.097656 4.847656 6.097656 4.84375 C 6.082031 4.335938 6.015625 3.855469 5.910156 3.410156 C 7.65625 2.234375 9.6875 1.628906 11.796875 1.628906 C 17.167969 1.628906 21.679688 5.695312 22.292969 10.984375 L 18.1875 10.984375 C 17.613281 7.980469 14.960938 5.695312 11.796875 5.695312 C 8.21875 5.695312 5.289062 8.625 5.289062 12.203125 C 5.289062 15.78125 8.21875 18.710938 11.796875 18.710938 C 14.667969 18.710938 17.117188 16.828125 17.976562 14.238281 L 22.167969 14.238281 C 21.234375 19.160156 16.839844 22.78125 11.796875 22.78125 Z M 17.449219 12.203125 C 17.449219 12.691406 17.371094 13.21875 17.246094 13.707031 C 17.230469 13.765625 17.226562 13.820312 17.238281 13.875 C 16.519531 16.199219 14.347656 17.898438 11.796875 17.898438 C 8.664062 17.898438 6.101562 15.335938 6.101562 12.203125 C 6.101562 9.070312 8.664062 6.507812 11.796875 6.507812 C 14.617188 6.507812 16.972656 8.585938 17.417969 11.28125 C 17.410156 11.332031 17.410156 11.378906 17.410156 11.429688 C 17.449219 11.714844 17.449219 11.960938 17.449219 12.203125 Z M 22.667969 13.367188 C 22.636719 13.367188 22.605469 13.375 22.578125 13.382812 C 22.53125 13.40625 22.488281 13.414062 22.449219 13.421875 C 22.421875 13.421875 22.398438 13.421875 22.371094 13.421875 L 18.1875 13.421875 C 18.253906 13.078125 18.292969 12.722656 18.304688 12.359375 C 18.304688 12.304688 18.304688 12.253906 18.304688 12.203125 C 18.304688 12.082031 18.304688 11.917969 18.304688 11.796875 L 22.371094 11.796875 C 22.414062 11.796875 22.457031 11.800781 22.496094 11.808594 C 22.535156 11.816406 22.578125 11.835938 22.617188 11.878906 C 22.664062 11.894531 22.707031 11.898438 22.753906 11.890625 C 23.011719 12.027344 23.1875 12.300781 23.1875 12.609375 C 23.1875 12.953125 22.96875 13.25 22.667969 13.367188 Z M 22.667969 13.367188"/>
    <path d="M2.847656 8.136719C3.417969 8.136719 4.472656 6.753906 4.472656 4.882812 4.472656 4.636719 4.3125 4.472656 4.066406 4.472656 3.824219 4.472656 3.660156 4.636719 3.660156 4.882812 3.660156 6.386719 2.929688 7.199219 2.726562 7.320312 2.5625 7.363281 2.441406 7.527344 2.441406 7.730469 2.441406 7.972656 2.601562 8.136719 2.847656 8.136719zM11.796875 7.320312C9.113281 7.320312 6.914062 9.519531 6.914062 12.203125 6.914062 14.886719 9.113281 17.085938 11.796875 17.085938 14.480469 17.085938 16.679688 14.886719 16.679688 12.203125 16.679688 9.519531 14.480469 7.320312 11.796875 7.320312zM11.796875 16.269531C9.558594 16.269531 7.730469 14.441406 7.730469 12.203125 7.730469 9.964844 9.558594 8.136719 11.796875 8.136719 14.035156 8.136719 15.863281 9.964844 15.863281 12.203125 15.863281 14.441406 14.035156 16.269531 11.796875 16.269531zM11.796875 16.269531"/>
    <path d="M14.238281 12.203125C14.238281 13.546875 13.140625 14.644531 11.796875 14.644531 11.550781 14.644531 11.390625 14.808594 11.390625 15.050781 11.390625 15.296875 11.550781 15.457031 11.796875 15.457031 13.585938 15.457031 15.050781 13.992188 15.050781 12.203125 15.050781 11.960938 14.886719 11.796875 14.644531 11.796875 14.398438 11.796875 14.238281 11.960938 14.238281 12.203125zM12.203125 12.203125L12.203125 10.984375C12.203125 10.089844 11.472656 9.355469 10.578125 9.355469 9.679688 9.355469 8.949219 10.089844 8.949219 10.984375 8.949219 11.878906 9.679688 12.609375 10.578125 12.609375L11.796875 12.609375C12.039062 12.609375 12.203125 12.449219 12.203125 12.203125zM11.390625 11.796875L10.578125 11.796875C10.128906 11.796875 9.761719 11.429688 9.761719 10.984375 9.761719 10.535156 10.128906 10.167969 10.578125 10.167969 11.023438 10.167969 11.390625 10.535156 11.390625 10.984375zM11.390625 11.796875"/>
</svg>

<svg xmlns="http://www.w3.org/2000/svg" width="32" height="32" viewBox="0 0 24 24">
    <path d="M24 12.61a1.63 1.63 0 0 0-.875-1.442C22.594 5.355 17.687.813 11.797.813c-2.184 0-4.3.628-6.117 1.851C5.152 1.297 4.18.406 3.05.406 1.345.406 0 2.441 0 5.086 0 6.484.387 7.73 1.012 8.582a11.25 11.25 0 0 0-.606 3.621c0 1.906.504 3.817 1.403 5.496-.043.313-.09.621-.141.93l-.367 2.484c-.082.285-.082.61 0 .895l.043.082c.203.894 1.015 1.504 1.91 1.504.894 0 1.707-.61 1.953-1.504l.04-.082c.023-.153.03-.301.03-.453a11.412 11.412 0 0 0 6.52 2.039c5.523 0 10.297-4.055 11.223-9.492.578-.254.98-.829.98-1.493zM3.05 1.218c1.22 0 2.24 1.75 2.24 3.867 0 1.476-.52 2.812-1.259 3.457h-.004l-.164.082c-.527.363-1.097.406-1.625.04l-.113-.08c-.016-.01-.031-.023-.047-.038C1.336 7.907.813 6.57.813 5.086c0-2.117 1.019-3.867 2.238-3.867zM1.626 9.234h.004c.406 2.278.488 4.598.324 6.875a10.579 10.579 0 0 1-.734-3.906c0-1.015.125-1.992.406-2.969zm2.809 12.57l-.04.079c-.164.531-.613.898-1.14.898-.527 0-.977-.367-1.098-.898l-.039-.078a1.108 1.108 0 0 1 0-.532l.363-2.48c.063-.371.114-.746.157-1.121.004-.004.004-.012.008-.02.007-.09.02-.18.027-.27.285-2.57.234-5.14-.106-7.675a2.138 2.138 0 0 0 1.418-.16 30.73 30.73 0 0 0 .043 9.246l.285 1.871c0 .05.016.102.047.152l.075.457c.039.165.039.368 0 .532zm7.363.977c-2.422 0-4.766-.843-6.672-2.367l-.285-1.742a28.617 28.617 0 0 1-.375-4.54c-.008-1.71.137-3.417.418-5.1l.035-.231c.723-.852 1.184-2.196 1.184-3.715v-.024-.019-.027c0-.055 0-.11-.004-.164v-.008A7.183 7.183 0 0 0 5.91 3.41a10.477 10.477 0 0 1 5.887-1.781c5.371 0 9.883 4.066 10.496 9.355h-4.105c-.575-3.004-3.227-5.289-6.391-5.289-3.578 0-6.508 2.93-6.508 6.508s2.93 6.508 6.508 6.508c2.871 0 5.32-1.883 6.18-4.473h4.191c-.934 4.922-5.328 8.543-10.371 8.543zm5.652-10.578a6.22 6.22 0 0 1-.203 1.504.352.352 0 0 0-.008.168c-.718 2.324-2.89 4.023-5.441 4.023-3.133 0-5.695-2.562-5.695-5.695 0-3.133 2.562-5.695 5.695-5.695 2.82 0 5.176 2.078 5.621 4.773-.008.051-.008.098-.008.149.04.285.04.53.04.773zm5.219 1.164a.333.333 0 0 0-.09.016c-.047.023-.09.031-.129.039h-4.261c.066-.344.105-.7.117-1.063v-.156-.406h4.066c.043 0 .086.004.125.012.04.007.082.027.121.07.047.016.09.02.137.012.258.136.433.41.433.718 0 .344-.218.641-.519.758zm0 0"/>
    <path d="M2.848 8.137c.57 0 1.625-1.383 1.625-3.254 0-.246-.16-.41-.407-.41-.242 0-.406.164-.406.41 0 1.504-.73 2.316-.933 2.437-.164.043-.286.207-.286.41 0 .243.16.407.407.407zm0 0M11.797 7.32c-2.684 0-4.883 2.2-4.883 4.883 0 2.684 2.2 4.883 4.883 4.883s4.883-2.2 4.883-4.883-2.2-4.883-4.883-4.883zm0 8.95a4.076 4.076 0 0 1-4.067-4.067 4.076 4.076 0 0 1 4.067-4.066 4.076 4.076 0 0 1 4.066 4.066 4.076 4.076 0 0 1-4.066 4.067zm0 0"/>
    <path d="M14.238 12.203a2.447 2.447 0 0 1-2.441 2.442c-.246 0-.406.164-.406.406 0 .246.16.406.406.406a3.264 3.264 0 0 0 3.254-3.254.385.385 0 0 0-.406-.406c-.247 0-.407.164-.407.406zm0 0M12.203 12.203v-1.219c0-.894-.73-1.629-1.625-1.629-.898 0-1.629.735-1.629 1.63 0 .894.73 1.624 1.63 1.624h1.218c.242 0 .406-.16.406-.406zm-.812-.406h-.813a.818.818 0 0 1-.816-.813c0-.449.367-.816.816-.816.445 0 .813.367.813.816zm0 0"/>
</svg>
